X: 400
T: Bitter Creek
C:Benny Thomasson
B: jims roots
M:4/4
L:1/8
Q: 1/4=100
K:G
V:1 
%Q:418
X ga |: "G"bgdg "G7"edBe | "G7"dBGB "C#dim7"AGEG | "G"DB,DG "G7"Bdge |
"A7"dBAG Adga | "G"bgag "G7"fagb | "C"(3gag ed "C#dim7"BGAG |
"G"FGEG "G7"(3DEF GA |[1 B"D7"GAF "G"G2 ga :|[2 B"D7"GAF "G"G2 (3GFE ||
|: "G"DCB,C "G7"G,B,DG | "C"ECEG "C#dim7"FAGE | "G"DB,DG "G7"Bdge |
"A7"dBAG E"D7"FGE | "G"DCB,A, "G7"(3G,A,B, DG | "C"ECEF "C#dim7"GAGE |
"G"DB,DG "G7"Bdge |[1 d"D7"BAF "G"G2 (3GFE :|[2 d"D7"BAF "G"G2 (3DEF ]
|: "G"G2 ge "G7"dded | "C"BGAG "C#dim7"EFGE | "G"DB,DG "G7"Bdge |
"A7"dBAG EFGE | "G"DG,ge "G7"dged | "C"BGAG "C#dim7"EFGE |
"G"DB,DG "G7"Bdge |[1 d"D7"BAF "G"G2 (3DEF :|[2 d"D7"BAF "G"G2 ef ||
|: "G"gbge "G7"dged | "C"gded "C#dim7"^cdBd | "G"gbge "G7"dged |
"A7"BGAG EFGE | "G"DG,ge "G7"dged | "C"gded "C#dim7"^cdBd |
"G"gbge "G7"dged |[1 B"D7"GAF "G"G2 ef :|[2 B"D7"GAF "G"G4 ||
% abcbook-tune_id 6298c2459b7d9b62b6db55e0


% abcbook-boost 0
% abcbook-tablature 
% abcbook-transpose 
% abcbook-lastupdated 1654178373364
% abcbook-soundfonts 
% abcbook-repeats 1


